X:4155
L:1/8
Q:1/2=90
M:2/2
K:A
 d2 |"^semi-quavers in ms" cdec A2 A2 | GABG E4 | FEFG AFED | CDEC B,4 | cdec A2 A2 | GABG E2 c2 | 
 defg aefd | c2 A2 A2 :: e2 | fgaf ecAc | fgaf ecAc | BABc dB ba | g2 e2 e2 (Ac) | d2 fd c2 ec | 
 B2 bg aedc | defd cABG | A2 A2 A2 :|

